src/assets/icons/work-5.svg

<svg width="47" height="47" viewBox="0 0 47 47" fill="none" xmlns="http://www.w3.org/2000/svg">
<path fill-rule="evenodd" clip-rule="evenodd" d="M19.0938 7.34375C19.0938 6.53258 19.7513 5.875 20.5625 5.875H26.4375C27.2487 5.875 27.9062 6.53258 27.9062 7.34375C27.9062 8.15492 27.2487 8.8125 26.4375 8.8125H20.5625C19.7513 8.8125 19.0938 8.15492 19.0938 7.34375Z" fill="white"/>
<path fill-rule="evenodd" clip-rule="evenodd" d="M19.0938 39.6562C19.0938 38.8451 19.7513 38.1875 20.5625 38.1875H26.4375C27.2487 38.1875 27.9062 38.8451 27.9062 39.6562C27.9062 40.4674 27.2487 41.125 26.4375 41.125H20.5625C19.7513 41.125 19.0938 40.4674 19.0938 39.6562Z" fill="white"/>
<path fill-rule="evenodd" clip-rule="evenodd" d="M32.3125 7.34375C32.3125 6.53258 32.9701 5.875 33.7812 5.875H38.1875C38.9666 5.875 39.7137 6.18449 40.2646 6.73537C40.8155 7.28626 41.125 8.03343 41.125 8.8125V13.2188C41.125 14.0299 40.4674 14.6875 39.6562 14.6875C38.8451 14.6875 38.1875 14.0299 38.1875 13.2188L38.1875 8.8125L33.7812 8.8125C32.9701 8.8125 32.3125 8.15492 32.3125 7.34375Z" fill="white"/>
<path fill-rule="evenodd" clip-rule="evenodd" d="M39.6562 19.0938C40.4674 19.0938 41.125 19.7513 41.125 20.5625V26.4375C41.125 27.2487 40.4674 27.9062 39.6562 27.9062C38.8451 27.9062 38.1875 27.2487 38.1875 26.4375V20.5625C38.1875 19.7513 38.8451 19.0938 39.6562 19.0938Z" fill="white"/>
<path fill-rule="evenodd" clip-rule="evenodd" d="M39.6562 32.3125C40.4674 32.3125 41.125 32.9701 41.125 33.7812V38.1875C41.125 38.9666 40.8155 39.7137 40.2646 40.2646C39.7137 40.8155 38.9666 41.125 38.1875 41.125H33.7812C32.9701 41.125 32.3125 40.4674 32.3125 39.6562C32.3125 38.8451 32.9701 38.1875 33.7812 38.1875H38.1875V33.7812C38.1875 32.9701 38.8451 32.3125 39.6562 32.3125Z" fill="white"/>
<path fill-rule="evenodd" clip-rule="evenodd" d="M7.34375 19.0938C8.15492 19.0938 8.8125 19.7513 8.8125 20.5625V26.4375C8.8125 27.2487 8.15492 27.9062 7.34375 27.9062C6.53258 27.9062 5.875 27.2487 5.875 26.4375V20.5625C5.875 19.7513 6.53258 19.0938 7.34375 19.0938Z" fill="white"/>
<path fill-rule="evenodd" clip-rule="evenodd" d="M7.34375 32.3125C8.15492 32.3125 8.8125 32.9701 8.8125 33.7812V38.1875H13.2188C14.0299 38.1875 14.6875 38.8451 14.6875 39.6562C14.6875 40.4674 14.0299 41.125 13.2188 41.125H8.8125C8.03343 41.125 7.28626 40.8155 6.73537 40.2646C6.18449 39.7137 5.875 38.9666 5.875 38.1875V33.7812C5.875 32.9701 6.53258 32.3125 7.34375 32.3125Z" fill="white"/>
<path fill-rule="evenodd" clip-rule="evenodd" d="M6.73537 6.73537C7.28626 6.18449 8.03343 5.875 8.8125 5.875H13.2188C14.0299 5.875 14.6875 6.53258 14.6875 7.34375C14.6875 8.15492 14.0299 8.8125 13.2188 8.8125L8.8125 8.8125L8.8125 13.2188C8.8125 14.0299 8.15492 14.6875 7.34375 14.6875C6.53258 14.6875 5.875 14.0299 5.875 13.2188V8.8125C5.875 8.03343 6.18449 7.28626 6.73537 6.73537Z" fill="white"/>
<path fill-rule="evenodd" clip-rule="evenodd" d="M13.2188 14.6875C13.2188 13.8763 13.8763 13.2188 14.6875 13.2188H32.3125C33.1237 13.2188 33.7812 13.8763 33.7812 14.6875V32.3125C33.7812 33.1237 33.1237 33.7812 32.3125 33.7812H14.6875C13.8763 33.7812 13.2188 33.1237 13.2188 32.3125V14.6875ZM16.1562 16.1562V30.8438H30.8438V16.1562H16.1562Z" fill="white"/>
</svg>

<svg width="47" height="47" fill="none" xmlns="http://www.w3.org/2000/svg"><path fill-rule="evenodd" clip-rule="evenodd" d="M19.094 7.344c0-.811.657-1.469 1.468-1.469h5.875a1.469 1.469 0 1 1 0 2.938h-5.875a1.469 1.469 0 0 1-1.468-1.47zM19.094 39.656c0-.81.657-1.468 1.468-1.468h5.875a1.469 1.469 0 1 1 0 2.937h-5.875a1.469 1.469 0 0 1-1.468-1.469zM32.313 7.344c0-.811.657-1.469 1.468-1.469h4.407a2.937 2.937 0 0 1 2.937 2.938v4.406a1.469 1.469 0 0 1-2.938 0V8.813h-4.406a1.469 1.469 0 0 1-1.468-1.47zM39.656 19.094c.811 0 1.469.657 1.469 1.468v5.875a1.469 1.469 0 0 1-2.938 0v-5.875c0-.81.658-1.468 1.47-1.468zM39.656 32.313c.811 0 1.469.657 1.469 1.468v4.407a2.937 2.937 0 0 1-2.938 2.937h-4.406a1.469 1.469 0 0 1 0-2.938h4.407v-4.406c0-.81.657-1.468 1.468-1.468zM7.344 19.094c.81 0 1.468.657 1.468 1.468v5.875a1.469 1.469 0 1 1-2.937 0v-5.875c0-.81.658-1.468 1.469-1.468zM7.344 32.313c.81 0 1.468.657 1.468 1.468v4.407h4.407a1.469 1.469 0 0 1 0 2.937H8.813a2.937 2.937 0 0 1-2.938-2.938v-4.406c0-.81.658-1.468 1.469-1.468zM6.735 6.735c.551-.55 1.298-.86 2.077-.86h4.407a1.469 1.469 0 0 1 0 2.938H8.813v4.406a1.469 1.469 0 0 1-2.938 0V8.813c0-.78.31-1.527.86-2.078zM13.219 14.688c0-.812.657-1.47 1.469-1.47h17.624c.812 0 1.47.658 1.47 1.47v17.624c0 .812-.658 1.47-1.47 1.47H14.689a1.469 1.469 0 0 1-1.47-1.47V14.689zm2.937 1.468v14.688h14.688V16.156H16.156z" fill="#fff"/></svg>
